package/converter/svg/duotone/vector-polygon.svg

<svg xmlns="http://www.w3.org/2000/svg" viewBox="0 0 448 512"><!-- Font Awesome Pro 6.0.0-alpha2 by @fontawesome - https://fontawesome.com License - https://fontawesome.com/license (Commercial License) --><defs><style>.fa-secondary{opacity:.4}</style></defs><path d="M320 192C334.357 192 346.059 201.629 350.113 214.65L382.926 160H352C337.645 160 325.943 150.373 321.889 137.35L289.074 192H320ZM320 320H289.074L321.889 374.65C325.943 361.627 337.645 352 352 352H382.926L350.113 297.35C346.059 310.371 334.357 320 320 320ZM320 64H128V128H320V64ZM32 352H96V160H32V352ZM128 448H320V384H128V448Z" class="fa-secondary"/><path d="M96 32H32C14.328 32 0 46.326 0 64V128C0 145.674 14.328 160 32 160H96C113.674 160 128 145.674 128 128V64C128 46.326 113.674 32 96 32ZM80 112H48V80H80V112ZM416 32H352C334.328 32 320 46.326 320 64V128C320 145.674 334.328 160 352 160H416C433.674 160 448 145.674 448 128V64C448 46.326 433.674 32 416 32ZM400 112H368V80H400V112ZM416 352H352C334.328 352 320 366.326 320 384V448C320 465.674 334.328 480 352 480H416C433.674 480 448 465.674 448 448V384C448 366.326 433.674 352 416 352ZM400 432H368V400H400V432ZM96 352H32C14.328 352 0 366.326 0 384V448C0 465.674 14.328 480 32 480H96C113.674 480 128 465.674 128 448V384C128 366.326 113.674 352 96 352ZM80 432H48V400H80V432ZM352 288V224C352 206.326 337.674 192 320 192H256C238.328 192 224 206.326 224 224V288C224 305.674 238.328 320 256 320H320C337.674 320 352 305.674 352 288ZM304 272H272V240H304V272Z" class="fa-primary"/></svg>

<svg xmlns="http://www.w3.org/2000/svg" viewBox="0 0 448 512"><!--! Font Awesome Pro 6.6.0 by @fontawesome - https://fontawesome.com License - https://fontawesome.com/license (Commercial License) Copyright 2024 Fonticons, Inc. --><defs><style>.fa-secondary{opacity:.4}</style></defs><path class="fa-secondary" d="M32 160l0 192 64 0 0-192-64 0zm96-96l0 64 192 0 0-64L128 64zm0 320l0 64 192 0 0-64-192 0zM292.3 192l27.7 0c.5 0 1 0 1.4 0s1 .1 1.4 .1c.9 .1 1.9 .2 2.8 .4c1.8 .3 3.6 .8 5.3 1.4c3.4 1.3 6.6 3.1 9.4 5.4c5.5 4.6 9.5 11 11 18.3l28.4-49.7 4.5-7.9L352 160c-.8 0-1.7 0-2.5-.1s-1.7-.2-2.5-.3c-1.6-.3-3.2-.6-4.7-1.1c-3.1-1-5.9-2.4-8.5-4.2c-5.2-3.6-9.2-8.7-11.6-14.6L292.3 192zm0 128l29.9 52.3c4.7-11.9 16.3-20.3 29.8-20.3l32.3 0-4.5-7.9-28.4-49.7C348.4 309 335.5 320 320 320l-27.7 0z"/><path class="fa-primary" d="M32 32C14.3 32 0 46.3 0 64l0 64c0 17.7 14.3 32 32 32l64 0c17.7 0 32-14.3 32-32l0-64c0-17.7-14.3-32-32-32L32 32zM80 80l0 32-32 0 0-32 32 0zM352 32c-17.7 0-32 14.3-32 32l0 64c0 17.7 14.3 32 32 32l64 0c17.7 0 32-14.3 32-32l0-64c0-17.7-14.3-32-32-32l-64 0zm48 48l0 32-32 0 0-32 32 0zM0 384l0 64c0 17.7 14.3 32 32 32l64 0c17.7 0 32-14.3 32-32l0-64c0-17.7-14.3-32-32-32l-64 0c-17.7 0-32 14.3-32 32zm48 16l32 0 0 32-32 0 0-32zm304-48c-17.7 0-32 14.3-32 32l0 64c0 17.7 14.3 32 32 32l64 0c17.7 0 32-14.3 32-32l0-64c0-17.7-14.3-32-32-32l-64 0zm48 48l0 32-32 0 0-32 32 0zM224 224l0 64c0 17.7 14.3 32 32 32l64 0c17.7 0 32-14.3 32-32l0-64c0-17.7-14.3-32-32-32l-64 0c-17.7 0-32 14.3-32 32zm48 16l32 0 0 32-32 0 0-32z"/></svg>
